icon-themes/colibre_svg/cmd/sc_styleupdatebyexample.svg

<svg viewBox="0 0 16 16" xmlns="http://www.w3.org/2000/svg"><path d="m6.8984375 0-5.8984375 16h1.6875c.1834751 0 .339162-.05267.4667969-.158203.1357031-.10553.2257031-.227229.2757031-.365235l1.3278125-3.835937h1.2421875c0-.040625 0-.093727 0-.140625 0-.5.07-.971881.1992188-1.44h-.8992188l2.2-6.43c.1-.1959184.18-.4229678.2597656-.6827344.07977-.2597666.1604614-.5450426.2402344-.8535156l1.4550781 4.3027344c.5449219-.2364844 1.2449219-.3964844 1.8671879-.3964844l-2.2089848-6z" fill="#696969"/><path d="m11.5 7c-2.5 0-4.5 2-4.5 4.5 0 .9.26 1.695175.7 2.4l1.47-1.487891a2.5 2.5 0 0 1 -.17-.912109 2.5 2.5 0 0 1 2.5-2.5 2.5 2.5 0 0 1 .912109.17l1.487891-1.47c-.704825-.44-1.5-.7-2.4-.7zm3.8 2.1-1.473828 1.487891a2.5 2.5 0 0 1 .173828.912109 2.5 2.5 0 0 1 -2.5 2.5 2.5 2.5 0 0 1 -.912109-.173828l-1.487891 1.473828c.7.439455 1.5.7 2.4.7 2.5 0 4.5-2 4.5-4.5 0-.9-.260545-1.7-.7-2.4z" fill="#4d82b8"/></svg>

<svg viewBox="0 0 16 16" xmlns="http://www.w3.org/2000/svg">
  <path
     style="fill:#696969"
     d="M 6.8984375 0 L 1 16 L 2.6875 16 C 2.8709751 16 3.026662 15.94733 3.1542969 15.841797 C 3.29 15.736267 3.38 15.614568 3.43 15.476562 L 4.7578125 11.640625 L 6 11.640625 C 6 11.6 6 11.546898 6 11.5 C 6 11 6.07 10.528119 6.1992188 10.06 L 5.3 10.06 L 7.5 3.63 C 7.6 3.4340816 7.68 3.2070322 7.7597656 2.9472656 C 7.8395356 2.687499 7.920227 2.402223 8 2.09375 L 9.4550781 6.3964844 C 10 6.16 10.7 6 11.322266 6 L 9.1132812 0 L 6.8984375 0 z "
     />
  <path
     style="fill:#4d82b8"
     d="M 11.5 7 C 9 7 7 9 7 11.5 C 7 12.4 7.26 13.195175 7.7 13.9 L 9.17 12.412109 A 2.5 2.5 0 0 1 9 11.5 A 2.5 2.5 0 0 1 11.5 9 A 2.5 2.5 0 0 1 12.412109 9.17 L 13.9 7.7 C 13.195175 7.26 12.4 7 11.5 7 z M 15.3 9.1 L 13.826172 10.587891 A 2.5 2.5 0 0 1 14 11.5 A 2.5 2.5 0 0 1 11.5 14 A 2.5 2.5 0 0 1 10.587891 13.826172 L 9.1 15.3 C 9.8 15.739455 10.6 16 11.5 16 C 14 16 16 14 16 11.5 C 16 10.6 15.739455 9.8 15.3 9.1 z "
     />
</svg>
